X:253
T: Der Schaefer von der neuen Stadt
N: A0298
O: Europa, Mitteleuropa, Deutschland
N: Schmeltzel Quodl. No. 8 (1544). Dritte Zeile von Boehme ergaenzt.
R: Romanze, Ballade, Lied
M: 3/1
L: 1/1
K: F
F | F2F | c2c | d2d | c2
F | c2f | eec | d3 | c2
F | F2F | c2c | d2d | c2
F | c2f | eec | d3 | c2
d | cBG | AFd | cBG | AF
C | FFA | c2A | G3 | F2

@@@ Tune index: 253
